!!!COM: Palestrina, Giovanni Perluigi da
!!!OPR: Jam Christus astra ascenderat
!!!OTL: Credo
**kern	**kern	**kern	**kern
*Ibass	*Itenor	*Icalto	*Icant
!Bassus	!Tenor	!Altus	!Cantus
*clefF4	*clefGv2	*clefG2	*clefG2
*k[b-]	*k[b-]	*k[b-]	*k[b-]
*G:dor	*G:dor	*G:dor	*G:dor
*M4/2	*M4/2	*M4/2	*M4/2
=1	=1	=1	=1
0r	0r	0r	1g
.	.	.	1g
=2	=2	=2	=2
0r	1G	0r	1b-
.	1G	.	1g
=3	=3	=3	=3
0r	1B-	1d	1f
.	1G	1d	2.b-
.	.	.	4cc
=4	=4	=4	=4
0r	1F	1f	4dd
.	.	.	4ee
.	.	.	2.ff
.	2.B-	[1d	.
.	.	.	4ee
.	.	.	4dd
.	4c	.	4cc
=5	=5	=5	=5
0r	4d	1d]	4b-
.	4e	.	4a
.	2.f	.	4a
.	.	.	8g
.	.	.	8f
.	.	1c	1g
.	4e	.	.
.	2e	.	.
=6	=6	=6	=6
1D	2.d	2.f	1a
.	4e	4g	.
1D	2f	4a	1r
.	.	8g	.
.	.	8a	.
.	2d	2b-	.
=7	=7	=7	=7
1F	1c	2a	2r
.	.	2f	2a
1D	2d	2f	1a
.	[2f	2f	.
=8	=8	=8	=8
1C	4f]	1g	1cc
.	8e	.	.
.	8d	.	.
.	2e	.	.
2.F	2f	2c	[1a
.	2F	[2f	.
4G	.	.	.
=9	=9	=9	=9
4A	1c	4f]	2a]
4B-	.	4e	.
2.c	.	2e	2g
.	2G	1d	1g
4B-	.	.	.
2B-	[2d	.	.
=10	=10	=10	=10
1A	2d]	1e	1a
.	2c	.	.
1D	2.f	2r	2a
.	.	[2a	[2dd
.	4g	.	.
=11	=11	=11	=11
0r	2f	2a]	2dd]
.	2.e	2g	2cc
.	.	2a	2.ff
.	4d	.	.
.	[2d	2b-	.
.	.	.	4gg
=12	=12	=12	=12
0r	2d]	1a	2ff
.	2c#	.	2.ee
.	2d	2f	.
.	.	.	4dd
.	2G	2g	[2dd
=13	=13	=13	=13
1r	1A	2e	2dd]
.	.	2a	2cc#
2r	2.B-	2f	[1dd
[2G	.	[2b-	.
.	4c	.	.
=14	=14	=14	=14
2G]	4d	2b-]	1dd]
.	4e	.	.
2F	1f	2a	.
2B-	.	[1g	1r
2c	2e	.	.
=15	=15	=15	=15
2B-	2d	2g]	1r
2A	2c	2f	.
1G	2.g	1b-	2r
.	.	.	[2dd
.	4f	.	.
=16	=16	=16	=16
1A	1e	2r	2dd]
.	.	1a	2cc
1r	1r	.	2ff
.	.	2g	2gg
=17	=17	=17	=17
0r	0r	2b-	2ff
.	.	2cc	2ee
.	.	2b-	2dd
.	.	2a	2cc
=18	=18	=18	=18
0r	2r	2g	2dd
.	1d	4f	1ff
.	.	4g	.
.	.	4a	.
.	.	4b-	.
.	2c	2cc	[2ee
=19	=19	=19	=19
1r	2f	2a	4ee]
.	.	.	4dd
.	2g	2b-	1dd
1A	1e	2a	.
.	.	2a	2cc#
=20	=20	=20	=20
1B-	2r	2f	2dd
.	2d	2g	1dd
2A	2e	1a	.
2A	2f	.	[2cc
=21	=21	=21	=21
1G	2g	2d	2cc]
.	2G	2.g	2b
2E	2.c	.	1cc
.	.	4e	.
[2F	.	2a	.
.	4B-	.	.
=22	=22	=22	=22
2F]	2A	2f	1cc
2E-	2G	1g	.
2D	2A	.	2dd
2D	2A	2f#	2a
=23	=23	=23	=23
2G	1G	2.g	4b-
.	.	.	4a
1G	.	.	4g
.	.	8f	4a
.	.	8e	.
.	1r	1d	4b-
.	.	.	4cc
2B-	.	.	4dd
.	.	.	4b-
=24	=24	=24	=24
2A	2r	0r	2cc
2G	1d	.	2b-
1d	.	.	1a
.	2f	.	.
=25	=25	=25	=25
2c	2e	0r	0r
1B	2d	.	.
.	1g	.	.
2c	.	.	.
=26	=26	=26	=26
2.A	2f	0r	0r
.	1e	.	.
4B	.	.	.
2c	.	.	.
[2d	2f	.	.
=27	=27	=27	=27
4d]	2.d	0r	0r
4c	.	.	.
1B-	.	.	.
.	4e	.	.
.	2f	.	.
4A	[2g	.	.
4G	.	.	.
=28	=28	=28	=28
2A	2g]	1a	1r
2A	2f#	.	.
1G	2g	2b	1dd
.	2g	2b	.
=29	=29	=29	=29
0r	2c	1.cc	2ee-
.	2c	.	2ee-
.	1g	.	1dd
.	.	2b-	.
=30	=30	=30	=30
0r	2e	2g	2cc
.	1f	2a	2cc
.	.	2d	2a
.	[2d	2f	[2b-
=31	=31	=31	=31
1A	2d]	2e	2b-]
.	2c	1f	1a
2B-	2d	.	.
2B-	2d	4e	2g
.	.	4d	.
=32	=32	=32	=32
1A	2.e	4c	4a
.	.	4d	4b
.	.	4e	2.cc
.	4f	4c	.
2G	1g	2d	.
.	.	.	8b
.	.	.	8a
2G	.	2d	2b
=33	=33	=33	=33
2E	0r	2.c	0cc
2.F	.	.	.
.	.	4B-	.
.	.	4A	.
4E	.	4G	.
2E	.	[2c	.
=34	=34	=34	=34
2F	1d	2c]	0r
2G	.	2B	.
1C	1e-	2c	.
.	.	[2g	.
=35	=35	=35	=35
1r	0d	2g]	1a
.	.	2f#	.
1G	.	1g	1b-
=36	=36	=36	=36
2.A	1c	2e	1a
.	.	2e	.
4G	.	.	.
2F	2A	2f	2a
2G	[2B-	[2e	2g
=37	=37	=37	=37
2.D	2B-]	4e]	2f
.	.	4d	.
.	2A	1d	2f
4F	.	.	.
1E	1G	.	1g
.	.	2c#	.
=38	=38	=38	=38
1D	1A	2d	2f
.	.	1f	1a
1r	1r	.	.
.	.	2g	2b-
=39	=39	=39	=39
0r	0r	2a	2cc
.	.	2f	2dd
.	.	2g	2b-
.	.	2a	2cc
=40	=40	=40	=40
0r	0r	2b-	2dd
.	.	2g	2ee
.	.	2a	2ff
.	.	2a	2ee
=41	=41	=41	=41
2r	0r	2b-	2dd
2F	.	2.a	2.cc
1A	.	.	.
.	.	4g	4b-
.	.	[2f	2a
=42	=42	=42	=42
2.c	1r	2f]	1g
.	.	2e	.
4c	.	.	.
1d	2r	[1f	2f
.	2B-	.	2ff
=43	=43	=43	=43
1.B-	1d	1f]	2ff
.	.	.	2.dd
.	2.f	2B-	.
.	.	.	4dd
2A	.	2c	[2cc
.	4f	.	.
=44	=44	=44	=44
[0G	1g	2.d	2cc]
.	.	.	4b
.	.	4d	4a
.	2e	2G	4b
.	.	.	4cc
.	2d	[2g	[2dd
=45	=45	=45	=45
0G]	0g	2g]	2dd]
.	.	2e	1cc
.	.	1d	.
.	.	.	2b
=46	=46	=46	=46
[0C	2r	1e	[0cc
.	2g	.	.
.	2.e	2r	.
.	.	2c	.
.	4f	.	.
=47	=47	=47	=47
1C]	2g	2e	0cc]
.	2e	2g	.
2r	2f	2.a	.
2F	[2a	.	.
.	.	4g	.
=48	=48	=48	=48
2A	2a]	2f	0r
2c	2.g	2.e	.
1d	.	.	.
.	4f	4d	.
.	4f	[2d	.
.	8e	.	.
.	8d	.	.
=49	=49	=49	=49
2A	2e	2d]	1r
2A	2e	2c#	.
1B-	2d	2d	2r
.	2f	2d	2f
=50	=50	=50	=50
1r	2d	2f	2a
.	2c	2e	2cc
2r	1B-	1f	1dd
2B-	.	.	.
=51	=51	=51	=51
2G	2B-	2g	2b-
2F	2c	2a	2.a
1E-	[1e-	1b-	.
.	.	.	4g
.	.	.	[2g
=52	=52	=52	=52
2C	2e-]	1a	2g]
2D	4d	.	2f#
.	4c	.	.
1E-	2B-	2r	1g
.	2c	2g	.
=53	=53	=53	=53
1D	1d	2b-	2r
.	.	2a	2dd
1r	1r	2g	2ee-
.	.	[2f	2dd
=54	=54	=54	=54
1r	0r	4f]	2cc
.	.	4e	.
.	.	4d	2.b-
.	.	4c	.
1G	.	2d	.
.	.	.	4a
.	.	[2e	4g
.	.	.	4f
=55	=55	=55	=55
1B-	0r	4e]	4g
.	.	4d	4f
.	.	1d	4f
.	.	.	8e
.	.	.	8d
1A	.	.	1e
.	.	2c	.
=56	=56	=56	=56
2F	0r	2A	0d
2.G	.	2.B-	.
4F	.	4A	.
4F	.	[2d	.
8E	.	.	.
8D	.	.	.
=57	=57	=57	=57
1E	2r	2d]	1r
.	2g	2c#	.
1D	2f	4d	2r
.	.	4e	.
.	2d	4f	2dd
.	.	4g	.
=58	=58	=58	=58
2r	1f	0a	2cc
2d	.	.	2a
2c	1e	.	1cc
2A	.	.	.
=59	=59	=59	=59
2B-	0d	2r	1b-
2G	.	2g	.
1D	.	2f	2a
.	.	2d	2dd
=60	=60	=60	=60
0r	2r	1f	2cc
.	2d	.	2a
.	2c	1e	1cc
.	2A	.	.
=61	=61	=61	=61
1G	4B-	0d	1b-
.	4c	.	.
.	4d	.	.
.	4e	.	.
2F	2.f	.	[1a
2D	.	.	.
.	8e	.	.
.	8d	.	.
=62	=62	=62	=62
1F	2c	1r	1a]
.	1d	.	.
1E	.	2.g	1r
.	2c#	.	.
.	.	4g	.
=63	=63	=63	=63
1D	4d	2f	2.dd
.	4e	.	.
.	4f	2d	.
.	4g	.	4dd
1r	1a	1f	2cc
.	.	.	2a
=64	=64	=64	=64
2.A	1r	1e	1cc
4A	.	.	.
1B-	2.d	4d	1b-
.	.	4e	.
.	.	4f	.
.	4d	4g	.
=65	=65	=65	=65
1F	2c	4a	0a
.	.	4b-	.
.	2A	2.cc	.
2A	1c	.	.
.	.	4b-	.
2F	.	[2a	.
=66	=66	=66	=66
1G	1B-	2a]	1dd
.	.	2g	.
1r	2A	[1a	2cc
.	2f	.	2a
=67	=67	=67	=67
1F	1f	1a]	1cc
2G	2d	1g	1b-
2G	4B-	.	.
.	4c	.	.
=68	=68	=68	=68
0D	4d	2f	[0a
.	4e	.	.
.	2.f	2d	.
.	.	1f	.
.	4e	.	.
.	[2d	.	.
=69	=69	=69	=69
0A	2d]	0e	1a_
.	4c#	.	.
.	4B	.	.
.	1c#	.	1a_
=70	=70	=70	=70
0D	0d	0f#	0a]
*	*	*	*-
!! Crucifixus
*Itenor	*Icalto	*Icant
!Tenor	!Altus	!Cantus
*clefGv2	*clefG2	*clefG2
*k[b-]	*k[b-]	*k[b-]
*G:dor	*G:dor	*G:dor
*M4/2	*M4/2	*M4/2
=71	=71	=71
1.G	1r	0r
.	[1d	.
2B-	.	.
=72	=72	=72
2G	2d]	0r
2F	2f	.
2B-	2d	.
2c	2c	.
=73	=73	=73
2d	2f	0r
2e	2g	.
2f	2a	.
2d	2b	.
=74	=74	=74
4c	1cc	1.g
4d	.	.
4e	.	.
4f	.	.
2g	[1b-	.
4G	.	2b-
4A	.	.
=75	=75	=75
4B-	2b-]	2g
4c	.	.
2d	2a	2f
2G	2g	2b-
2A	[2f	2cc
=76	=76	=76
2B-	2f]	2dd
2c	2e	2ee
4F	1a	2ff
4G	.	.
4A	.	4ee
4B-	.	4dd
=77	=77	=77
2c	2.g	2ee
2G	.	1dd
.	4f	.
1A	1e	.
.	.	2cc#
=78	=78	=78
1d	2d	[0dd
.	2a	.
1r	2b-	.
.	2g	.
=79	=79	=79
1d	2b-	1dd]
.	2a	.
2e-	2.g	1r
2c	.	.
.	4f	.
=80	=80	=80
2e-	2g	2r
2d	2.a	2dd
2.c	.	2ee-
.	4g	.
.	[2g	2cc
4B-	.	.
=81	=81	=81
2c	2g]	2ee-
2d	2f#	2.dd
2G	1g	.
.	.	4cc
[2g	.	4b-
.	.	4a
=82	=82	=82
2g]	2r	2b-
2e	2g	2.cc
2f	2a	.
.	.	4a
2d	2b-	[2dd
=83	=83	=83
2f	2a	2dd]
2e	1g	2cc#
2.d	.	1dd
.	2f#	.
4c	.	.
=84	=84	=84
4B-	2r	1dd
4A	.	.
2G	1g	.
2r	.	2b-
2A	2e	2cc
=85	=85	=85
2F	2f	2a
1B-	2d	1dd
.	2f	.
2c	2e	[2cc
=86	=86	=86
1.G	1d	2cc]
.	.	4b-
.	.	4a
.	2r	1b-
2G	2g	.
=87	=87	=87
1d	2g	2a
.	2f	2dd
1r	2b-	2dd
.	2cc	2cc
=88	=88	=88
1r	1.b-	2ff
.	.	2gg
1d	.	[1ff
.	2a	.
=89	=89	=89
2d	2f	2ff]
2c	2g	2ee
2f	2a	[1dd
2g	[2b-	.
=90	=90	=90
1f	4b-]	2dd]
.	4a	.
.	2a	4cc
.	.	4b-
2e	2g	2cc
2d	2f	[2dd
=91	=91	=91
1e	1g	2dd]
.	.	2cc#
1d	2a	[1dd
.	2f	.
=92	=92	=92
2r	1g	1dd]
2B-	.	.
2c	1a	1r
2d	.	.
=93	=93	=93
4G	1b-	0r
4A	.	.
4B-	.	.
4c	.	.
4d	2.a	.
4e	.	.
[2f	.	.
.	4g	.
=94	=94	=94
2f]	4a	1cc
.	4b	.
2e	1cc	.
2f	.	1dd
2g	2b	.
=95	=95	=95
4c	1cc	1ee
4d	.	.
4e	.	.
4c	.	.
1d	2r	1ff
.	2f	.
=96	=96	=96
1c	2g	1ee
.	2a	.
1r	2d	2dd
.	2g	2b-
=97	=97	=97
0r	2a	2cc
.	2.b-	2dd
.	.	4g
.	4a	4a
.	4g	4b-
.	4f	4cc
=98	=98	=98
1B-	1b-	4dd
.	.	4ee
.	.	4ff
.	.	4dd
2c	1a	2ee
2d	.	2ff
=99	=99	=99
4G	1r	2gg
4A	.	.
4B-	.	2.ff
4c	.	.
4d	1f	.
4e	.	4ee
4f	.	[2dd
4d	.	.
=100	=100	=100
2e	2g	2dd]
2.f	2a	2cc
.	4d	[1ff
4e	4e	.
2d	4f	.
.	4g	.
=101	=101	=101
1c	4a	2ff]
.	4b	.
.	4cc	2ee
.	4a	.
2g	2b	2dd
2e	[2cc	2cc
=102	=102	=102
2f	2cc]	1dd
2g	2b	.
2e	1cc	2r
2f	.	2a
=103	=103	=103
2g	0r	2b-
2.f	.	2cc
.	.	2a
4e	.	.
2d	.	2b-
=104	=104	=104
2c	1e	2.cc
2A	.	.
.	.	4b-
2d	2f	2a
2G	2g	[2dd
=105	=105	=105
1A	2e	2dd]
.	2f	2cc
1B-	2g	2b-
.	[2f	2a
=106	=106	=106
1c	2f]	1g
.	2e	.
2r	1f	1a
2A	.	.
=107	=107	=107
2B-	2r	1g
2c	2e	.
2A	2f	1r
2B-	2g	.
=108	=108	=108
2c	2e	2r
2d	2f	2a
2G	2g	2b-
2A	2e	2cc
=109	=109	=109
2d	2.f	2a
2d	.	2b-
.	4g	.
2c	2a	2cc
2B-	2b-	2dd
=110	=110	=110
1e-	2b-	2g
.	2g	2gg
[1d	2b-	2.ff
.	4a	.
.	4g	4ee
=111	=111	=111
1d]	2f	2dd
.	2a	2ff
1G	1g	2ee
.	.	[2dd
=112	=112	=112
1A	1e	2dd]
.	.	2cc#
2.B-	2d	1dd
.	2f	.
4A	.	.
=113	=113	=113
2G	2g	2b-
2F#	2a	2a
[1G	2.b-	2.g
.	4a	4a
=114	=114	=114
2G]	2g	2b-
2G	2g	2b-
1d	1f#	2a
.	.	[2a
=115	=115	=115
2r	2r	2a]
1d	1f#	2a
.	.	1b
2d	2f#	.
=116	=116	=116
1e	1g	0cc
[1f	2a	.
.	2f	.
=117	=117	=117
1f]	1a	2r
.	.	2f
2r	2.cc	1a
2F	.	.
.	4b-	.
=118	=118	=118
1A	4a	1cc
.	4g	.
.	4f	.
.	4e	.
2B-	4d	1dd
.	4c	.
[2G	4B-	.
.	4A	.
=119	=119	=119
4G]	2G	1b-
4A	.	.
4B-	1g	.
4c	.	.
1d	.	2a
.	2f#	[2a
=120	=120	=120
1e-	2.g	2a]
.	.	1g
.	4a	.
2d	2b-	.
2d	[2a	2f#
=121	=121	=121
2c	4a]	1g
.	4g	.
2e-	1g	.
1d	.	1a
.	2f#	.
=122	=122	=122
0G	0g	0b
*-	*-	*-
!! Et in Spiritum
**kern	**kern	**kern	**kern
*Ibass	*Itenor	*Icalto	*Icant
!Bassus	!Tenor	!Altus	!Cantus
*clefF4	*clefGv2	*clefG2	*clefG2
*k[b-]	*k[b-]	*k[b-]	*k[b-]
*G:dor	*G:dor	*G:dor	*G:dor
*M4/2	*M4/2	*M4/2	*M4/2
=123	=123	=123	=123
0r	0r	1r	1.dd
.	.	1g	.
.	.	.	2ee
=124	=124	=124	=124
0r	0r	2a	2.ff
.	.	2.b-	.
.	.	.	4ee
.	.	.	2dd
.	.	4b-	.
.	.	2g	[2ee-
=125	=125	=125	=125
0r	0r	1b-	2ee-]
.	.	.	2dd
.	.	2a	2cc
.	.	2g	2b-
=126	=126	=126	=126
0r	0r	2f	2a
.	.	2e	2g
.	.	2d	2b-
.	.	2f	2a
=127	=127	=127	=127
0r	0r	2e	4g
.	.	.	4a
.	.	4d	4b-
.	.	4e	4cc
.	.	4f	2dd
.	.	4g	.
.	.	[2a	[2cc
=128	=128	=128	=128
0r	1r	4a]	4cc]
.	.	4g	4b-
.	.	1g	4b-
.	.	.	8a
.	.	.	8g
.	[1d	.	1a
.	.	2f#	.
=129	=129	=129	=129
1G	2d]	1g	1g
.	2e	.	.
2A	1f	1r	1r
[2B-	.	.	.
=130	=130	=130	=130
2B-]	2d	2r	0r
2G	2e-	1g	.
2B-	2d	.	.
2A	2c	2a	.
=131	=131	=131	=131
1G	2B-	2b-	2r
.	2.d	2g	1dd
2F	.	2a	.
.	4c	.	.
2E	[2c	2g	2ee
=132	=132	=132	=132
1D	2c]	1f	2ff
.	2B	.	2dd
1C	2.c	2r	2.ee-
.	.	2g	.
.	4B-	.	4dd
=133	=133	=133	=133
2r	2A	2a	2cc
1G	1d	2.g	1b-
.	.	4f	.
2A	2c#	[2e	2a
=134	=134	=134	=134
2B-	1d	4e]	2.g
.	.	4d	.
2G	.	1d	.
.	.	.	4f
1A	1r	.	1e
.	.	2c#	.
=135	=135	=135	=135
2.B-	2r	1d	0d
.	1G	.	.
4A	.	.	.
2G	.	2r	.
2F#	2A	[2d	.
=136	=136	=136	=136
2.G	2B-	2d]	0r
.	2G	2e	.
8F	.	.	.
8E	.	.	.
2.D	2A	2f	.
.	2B-	2d	.
4C	.	.	.
=137	=137	=137	=137
4D	2A	1f	0r
4E	.	.	.
4F	2.d	.	.
4G	.	.	.
1A	.	2e	.
.	4c#	.	.
.	4c#	2e	.
.	8B	.	.
.	8c#	.	.
=138	=138	=138	=138
1.B-	2d	2d	2r
.	1d	2f	1dd
.	.	2g	.
2A	2e	[2a	2cc
=139	=139	=139	=139
2F	2f	2a]	2cc
2G	2d	2g	2b
[1C	[1e-	[1a	[1cc
=140	=140	=140	=140
1C]	1e-]	1a]	1cc]
1D	1d	1f#	1a
=141	=141	=141	=141
1B-	2r	2r	1dd
.	2d	2f	.
2B-	2d	2g	2dd
2A	2e	2a	2cc
=142	=142	=142	=142
2F	2f	2a	2cc
2G	2d	2g	2b
1C	1e-	1g	1cc
=143	=143	=143	=143
0D	1d	0f#	2a
.	.	.	1dd
.	2r	.	.
.	[2d	.	2a
=144	=144	=144	=144
0r	2d]	2r	2b-
.	2A	2a	2cc
.	2B-	2d	2dd
.	2c	2e	4cc
.	.	.	4b-
=145	=145	=145	=145
2r	2.d	2f	2a
1d	.	2.a	4f
.	4e	.	4g
.	4f	.	4a
.	4g	4g	4b-
2A	2a	[2f	2cc
=146	=146	=146	=146
2B-	2g	4f]	2dd
.	.	8e	.
.	.	8d	.
2c	2g	2e	4cc
.	.	.	4b-
2d	2.f	2f	4a
.	.	.	4b-
2A	.	2c	[2cc
.	4e-	.	.
=147	=147	=147	=147
1B-	2d	0f	4cc]
.	.	.	4b-
.	4c	.	1b-
.	4B-	.	.
1F	1c	.	.
.	.	.	2a
=148	=148	=148	=148
2B-	2B-	1f	1b-
2B-	2d	.	.
2A	2c	1r	1r
2G	2B-	.	.
=149	=149	=149	=149
1A	1c	0r	0r
2F	2A	.	.
2D	2d	.	.
=150	=150	=150	=150
2G	2d	0r	0r
2E	2c#	.	.
1D	2d	.	.
.	2f	.	.
=151	=151	=151	=151
2r	2e	1r	2r
2B-	2d	.	2dd
2A	2.e	2r	2cc
2G	.	2g	2b
.	4e	.	.
=152	=152	=152	=152
2.A	2c	2f	2.cc
.	2A	2e	.
4A	.	.	4cc
2F	2.d	2.f	2a
2D	.	.	2dd
.	4c	4f	.
=153	=153	=153	=153
2G	2B-	2d	2dd
2E	2G	2g	2cc#
1D	1A	2g	1dd
.	.	2f#	.
=154	=154	=154	=154
2r	2r	1g	2r
2G	2B	.	2dd
2G	2B	2r	2dd
2G	2B	2g	2dd
=155	=155	=155	=155
2C	1.c	2g	1ee
2c	.	2g	.
4F	.	1a	1ff
4G	.	.	.
4A	2c	.	.
4B-	.	.	.
=156	=156	=156	=156
2c	2e	2g	2ee
2A	2f	2a	2cc
1B-	1d	2f	[1dd
.	.	2g	.
=157	=157	=157	=157
1A	1e	2a	2dd]
.	.	1a	2cc#
1r	1f	.	2r
.	.	2d	2dd
=158	=158	=158	=158
2r	0r	2e	2g
2d	.	2f	2a
2G	.	2g	2b-
2A	.	2e	2cc
=159	=159	=159	=159
1B-	2r	2d	2f
.	1d	2f	2.b-
1G	.	1g	.
.	.	.	4cc
.	2G	.	4dd
.	.	.	4ee
=160	=160	=160	=160
1D	2A	2.f	1ff
.	2B	.	.
.	.	4d	.
2A	2c	4e	2ee
.	.	4f	.
2B-	2d	4g	[2dd
.	.	8f	.
.	.	8g	.
=161	=161	=161	=161
2A	2e	1a	4dd]
.	.	.	4cc
2F	2f	.	1cc
1G	1d	2.g	.
.	.	.	2b
.	.	4f	.
=162	=162	=162	=162
1r	2c	1e	1cc
.	4c	.	.
.	4d	.	.
[1c	4e	2r	[1cc
.	4f	.	.
.	[2g	4c	.
.	.	4d	.
=163	=163	=163	=163
1c]	2g]	4e	1cc]
.	.	4f	.
.	2e	2g	.
1d	2.f	2f	1a
.	.	[2a	.
.	4e	.	.
=164	=164	=164	=164
1B-	1d	4a]	1dd
.	.	4g	.
.	.	2g	.
1A	1e	2a	2cc
.	.	[2cc	[2a
=165	=165	=165	=165
2.A	2f	2cc]	2a]
.	2e	2a	2cc
4A	.	.	.
2G	2g	2b-	2dd
2G	2g	2b-	2ee
=166	=166	=166	=166
1F	1a	1.cc	1ff
1c	[1g	.	1ee-
.	.	2g	.
=167	=167	=167	=167
2.G	1g]	1.b-	1dd
4A	.	.	.
2B-	2.f	.	2dd
2F	.	2a	[2cc
.	4e-	.	.
=168	=168	=168	=168
2G	2d	1g	4cc]
.	.	.	4b-
2E-	2e-	.	1b-
1F	1c	2.f	.
.	.	.	2a
.	.	4e-	.
=169	=169	=169	=169
2r	1B-	0d	1b-
2G	.	.	.
1B-	2r	.	1f
.	2d	.	.
=170	=170	=170	=170
0F	0f	2r	1a
.	.	2f	.
.	.	1a	1cc
=171	=171	=171	=171
0r	1.B-	2b-	0dd
.	.	2b-	.
.	.	2g	.
.	2B-	2f	.
=172	=172	=172	=172
0r	2G	2g	2b-
.	2F	2a	2a
.	2G	2b-	2g
.	2d	[2a	2f#
=173	=173	=173	=173
0r	1e-	4a]	1g
.	.	4g	.
.	.	1g	.
.	1d	.	1a
.	.	2f#	.
=174	=174	=174	=174
1r	1G	2g	2g
.	.	2d	2b-
1D	2r	1f	1a
.	2F	.	.
=175	=175	=175	=175
1F	1A	1f	4a
.	.	.	4g
.	.	.	4f
.	.	.	4g
1F	1c	2r	4a
.	.	.	4b-
.	.	2a	4cc
.	.	.	4a
=176	=176	=176	=176
1B-	0d	2f	2b-
.	.	2f	2dd
2G	.	2g	2b-
2F#	.	2d	2a
=177	=177	=177	=177
2G	2B-	2e-	2g
2D	2A	2d	2f#
2E-	2G	4c	2g
.	.	4B-	.
2D	2F#	2d	[2a
=178	=178	=178	=178
2C	1G	2e-	4a]
.	.	.	4g
2E-	.	2c	1g
1D	1A	1d	.
.	.	.	2f#
=179	=179	=179	=179
0G	0G	0d	0g
==	==	==	==
*-	*-	*-	*-
!!!CDT: 1525/^1526/-1594/2/2
!!!OCY: Italia
!!!AGN: Mass (Paraphrase)
!!!AST: renaissance, vocal
!!!ASW: Hymn
!!!PWK: Masses, Book 5
!!!RNB: Cadence finals: D
!!!YOR: Le Opere Complete, v. 15, p. 20
!!!YOO: Rome, Italy: Fratelli Scalera
!!!END: 1992//
!!!EED: John Miller
!!!YEC: Copyright 2000, John Miller
!!!YEN: United States of America
!!!YEM: Rights to all derivative electronic formats reserved.
!!!YEM: Refer to licensing agreement for further details.
!!!YEM: This file must be accompanied by the licensing agreement.
!!!YEM: A copy of the licensing agreement may be found at http://www.music-cog.ohio-state.edu/HumdrumDatabases/Palestrina/license.txt
!!!EMD: converted to Humdrum by Bret Aarden
